Front/img/footer/apple.svg

<?xml version="1.0" encoding="UTF-8"?>
<svg width="126px" height="38px" viewBox="0 0 126 38" version="1.1" xmlns="http://www.w3.org/2000/svg" xmlns:xlink="http://www.w3.org/1999/xlink">
    <!-- Generator: Sketch 57.1 (83088) - https://sketch.com -->
    <title>Apple Store</title>
    <desc>Created with Sketch.</desc>
    <g id="WebDesign" stroke="none" stroke-width="1" fill="none" fill-rule="evenodd">
        <g id="1a5-Home" transform="translate(-128.000000, -7494.000000)">
            <g id="Footer" transform="translate(104.000000, 7370.000000)">
                <g id="Apple-Store" transform="translate(24.000000, 124.000000)">
                    <rect id="button" fill="#1A2238" x="0" y="0" width="125.244001" height="37.6320002" rx="5.88000003"></rect>
                    <path d="M40.5869299,6.48951757 L42.718717,6.48951757 C44.5619592,6.48951757 45.6515393,7.63939062 45.6515393,9.59460548 C45.6515393,11.554127 44.5662659,12.704 42.718717,12.704 L40.5869299,12.704 L40.5869299,6.48951757 Z M41.3621252,7.18719335 L41.3621252,12.0063242 L42.6670374,12.0063242 C44.0753088,12.0063242 44.8591174,11.1449961 44.8591174,9.60321876 C44.8591174,8.04852148 44.0796155,7.18719335 42.6670374,7.18719335 L41.3621252,7.18719335 Z M49.1349226,12.7470664 C47.8300105,12.7470664 46.9945222,11.8211387 46.9945222,10.3827207 C46.9945222,8.9399961 47.8300105,8.018375 49.1349226,8.018375 C50.4398347,8.018375 51.275323,8.9399961 51.275323,10.3827207 C51.275323,11.8211387 50.4398347,12.7470664 49.1349226,12.7470664 Z M49.1349226,12.0795371 C50.0005573,12.0795371 50.5130476,11.446461 50.5130476,10.3827207 C50.5130476,9.31467384 50.0005573,8.6859043 49.1349226,8.6859043 C48.2692878,8.6859043 47.7567976,9.31898048 47.7567976,10.3827207 C47.7567976,11.446461 48.2735944,12.0795371 49.1349226,12.0795371 Z M58.6432961,8.06144141 L57.3426906,12.704 L56.5847219,12.704 L55.5252883,9.09503516 L55.5080617,9.09503516 L54.4486281,12.704 L53.6906593,12.704 L52.3900539,8.06144141 L53.1307961,8.06144141 L54.0739504,11.8555918 L54.0911769,11.8555918 L55.1549172,8.06144141 L55.8784328,8.06144141 L56.942173,11.8555918 L56.9593996,11.8555918 L57.9025539,8.06144141 L58.6432961,8.06144141 Z M59.9862789,12.704 L59.9862789,8.06144141 L60.692568,8.06144141 L60.692568,8.81510352 L60.7097946,8.81510352 C61.0026461,8.28969336 61.4634567,8.018375 62.1826657,8.018375 C63.2033395,8.018375 63.7933493,8.67298438 63.7933493,9.72811134 L63.7933493,12.704 L63.0439938,12.704 L63.0439938,9.85731056 C63.0439938,9.0993418 62.6908493,8.6859043 61.9587203,8.6859043 C61.1964449,8.6859043 60.7356344,9.21131446 60.7356344,10.008043 L60.7356344,12.704 L59.9862789,12.704 Z M65.5368497,12.704 L65.5368497,6.21819921 L66.2862052,6.21819921 L66.2862052,12.704 L65.5368497,12.704 Z M69.9633872,12.7470664 C68.6584751,12.7470664 67.8229868,11.8211387 67.8229868,10.3827207 C67.8229868,8.9399961 68.6584751,8.018375 69.9633872,8.018375 C71.2682993,8.018375 72.1037876,8.9399961 72.1037876,10.3827207 C72.1037876,11.8211387 71.2682993,12.7470664 69.9633872,12.7470664 Z M69.9633872,12.0795371 C70.829022,12.0795371 71.3415122,11.446461 71.3415122,10.3827207 C71.3415122,9.31467384 70.829022,8.6859043 69.9633872,8.6859043 C69.0977525,8.6859043 68.5852622,9.31898048 68.5852622,10.3827207 C68.5852622,11.446461 69.1020591,12.0795371 69.9633872,12.0795371 Z M75.1134404,12.0967637 C75.8714092,12.0967637 76.4269658,11.6058067 76.4269658,10.9382774 L76.4269658,10.5635996 L75.2124931,10.6411192 C74.5148174,10.6841856 74.1530595,10.9382774 74.1530595,11.386168 C74.1530595,11.8168321 74.5277373,12.0967637 75.1134404,12.0967637 Z M74.9540947,12.7470664 C74.0109404,12.7470664 73.3864775,12.2044297 73.3864775,11.3818613 C73.3864775,10.5851328 73.9980205,10.115709 75.1263603,10.0468027 L76.4269658,9.96928321 L76.4269658,9.58168556 C76.4269658,9.00459571 76.0479814,8.6859043 75.3632256,8.6859043 C74.8248955,8.6859043 74.4243779,8.9615293 74.3339385,9.40080665 L73.6147295,9.40080665 C73.6362627,8.61699805 74.3985381,8.018375 75.3718388,8.018375 C76.4700322,8.018375 77.1763213,8.60407813 77.1763213,9.51708595 L77.1763213,12.704 L76.4657256,12.704 L76.4657256,11.8986582 L76.448499,11.8986582 C76.1857939,12.4154551 75.6043974,12.7470664 74.9540947,12.7470664 Z M80.6381713,12.7470664 C79.4710717,12.7470664 78.6485033,11.7996055 78.6485033,10.3827207 C78.6485033,8.96583594 79.4667651,8.018375 80.6209448,8.018375 C81.2841674,8.018375 81.8181909,8.30691992 82.1024291,8.81510352 L82.1196557,8.81510352 L82.1196557,6.21819921 L82.8690112,6.21819921 L82.8690112,12.704 L82.1541088,12.704 L82.1541088,11.9201914 L82.1411889,11.9201914 C81.8397241,12.4542149 81.3100073,12.7470664 80.6381713,12.7470664 Z M80.7716772,8.6859043 C79.9577221,8.6859043 79.4150854,9.35774024 79.4150854,10.3827207 C79.4150854,11.4120078 79.9577221,12.0795371 80.7716772,12.0795371 C81.577019,12.0795371 82.1239623,11.3947813 82.1239623,10.3827207 C82.1239623,9.3749668 81.577019,8.6859043 80.7716772,8.6859043 Z M89.3620472,12.7470664 C88.0571351,12.7470664 87.2216468,11.8211387 87.2216468,10.3827207 C87.2216468,8.9399961 88.0571351,8.018375 89.3620472,8.018375 C90.6669593,8.018375 91.5024476,8.9399961 91.5024476,10.3827207 C91.5024476,11.8211387 90.6669593,12.7470664 89.3620472,12.7470664 Z M89.3620472,12.0795371 C90.227682,12.0795371 90.7401722,11.446461 90.7401722,10.3827207 C90.7401722,9.31467384 90.227682,8.6859043 89.3620472,8.6859043 C88.4964124,8.6859043 87.9839222,9.31898048 87.9839222,10.3827207 C87.9839222,11.446461 88.5007191,12.0795371 89.3620472,12.0795371 Z M92.9961629,12.704 L92.9961629,8.06144141 L93.7024519,8.06144141 L93.7024519,8.81510352 L93.7196785,8.81510352 C94.0125301,8.28969336 94.4733406,8.018375 95.1925496,8.018375 C96.2132234,8.018375 96.8032332,8.67298438 96.8032332,9.72811134 L96.8032332,12.704 L96.0538777,12.704 L96.0538777,9.85731056 C96.0538777,9.0993418 95.7007332,8.6859043 94.9686043,8.6859043 C94.2063289,8.6859043 93.7455183,9.21131446 93.7455183,10.008043 L93.7455183,12.704 L92.9961629,12.704 Z M101.565,7.01492773 L102.314355,7.01492773 L102.314355,8.06144141 L103.21875,8.06144141 L103.21875,8.68159766 L102.314355,8.68159766 L102.314355,11.4679942 C102.314355,11.8943516 102.495234,12.0881504 102.891445,12.0881504 C102.981884,12.0881504 103.162763,12.0752305 103.214443,12.0666172 L103.214443,12.6996934 C103.124004,12.7212266 102.908672,12.7384532 102.732099,12.7384532 C101.892304,12.7384532 101.565,12.3896153 101.565,11.4981406 L101.565,8.68159766 L100.919004,8.68159766 L100.919004,8.06144141 L101.565,8.06144141 L101.565,7.01492773 Z M104.798598,12.704 L104.798598,6.21819921 L105.547953,6.21819921 L105.547953,8.81510352 L105.56518,8.81510352 C105.853725,8.28969336 106.327455,8.018375 107.038051,8.018375 C108.054418,8.018375 108.674574,8.7074375 108.674574,9.74103126 L108.674574,12.704 L107.925219,12.704 L107.925219,9.87453712 C107.925219,9.13379493 107.550541,8.6859043 106.814106,8.6859043 C106.030297,8.6859043 105.547953,9.21992774 105.547953,10.0338828 L105.547953,12.704 L104.798598,12.704 Z M112.226864,8.67729102 C111.499042,8.67729102 110.973631,9.20700782 110.921952,9.99081642 L113.47579,9.99081642 C113.458563,9.20270118 112.958993,8.67729102 112.226864,8.67729102 Z M113.458563,11.3775547 L114.199305,11.3775547 C114.070106,12.1742832 113.264764,12.7470664 112.274237,12.7470664 C110.969325,12.7470664 110.146756,11.8383653 110.146756,10.3999473 C110.146756,8.9615293 110.973631,8.018375 112.239784,8.018375 C113.480096,8.018375 114.255292,8.89262305 114.255292,10.2965879 L114.255292,10.5894395 L110.921952,10.5894395 L110.921952,10.6325059 C110.921952,11.5153672 111.464588,12.0881504 112.291463,12.0881504 C112.87286,12.0881504 113.325057,11.8125254 113.458563,11.3775547 Z" id="Downloadonthe" fill="#FFFFFF" fill-rule="nonzero"></path>
                    <path d="M45.5042522,19.5076153 L43.7141252,24.7780821 L47.3443362,24.7780821 L45.5542092,19.5076153 L45.5042522,19.5076153 Z M48.9179827,29.5240001 L47.818928,26.276793 L43.2395334,26.276793 L42.1404788,29.5240001 L40.2004807,29.5240001 L44.5384163,17.509334 L46.5533499,17.509334 L50.8912854,29.5240001 L48.9179827,29.5240001 Z M56.245014,28.0835723 C56.97217,28.0835723 57.5577715,27.8032607 58.0018363,27.242629 C58.445901,26.6819973 58.66793,25.9354246 58.66793,25.0028887 C58.66793,24.0703528 58.445901,23.3237802 58.0018363,22.7631485 C57.5577715,22.2025168 56.9749453,21.9222051 56.2533402,21.9222051 C55.531735,21.9222051 54.9461334,22.2052921 54.4965179,22.7714746 C54.0524532,23.343208 53.8304241,24.0897806 53.8304241,25.0112149 C53.8248733,25.9326492 54.044127,26.6764464 54.4881917,27.242629 C54.9322564,27.8088115 55.517858,28.0891231 56.245014,28.0835723 Z M56.6946273,20.3901895 C57.8436447,20.3901895 58.7678406,20.8092693 59.4672425,21.6474414 C60.1666445,22.4800628 60.5163402,23.5957587 60.5163402,24.9945626 C60.5163402,26.3933664 60.1721952,27.514613 59.4838949,28.358336 C58.7955945,29.202059 57.8797248,29.6211388 56.7362581,29.615588 C56.0868135,29.6211388 55.5150887,29.485146 55.0210667,29.2076055 C54.5270447,28.9300651 54.1440446,28.5415143 53.872055,28.0419415 L53.8387503,28.0419415 L53.8387503,32.521422 L52.031971,32.521422 L52.031971,20.4817774 L53.7721409,20.4817774 L53.7721409,21.9804883 L53.8137718,21.9804883 C54.0635582,21.4920171 54.4493336,21.1034663 54.9711097,20.8148242 C55.4928857,20.5261822 56.0673859,20.3846387 56.6946273,20.3901895 Z M66.1698109,28.0835723 C66.8969669,28.0835723 67.4825685,27.8032607 67.9266332,27.242629 C68.3706979,26.6819973 68.592727,25.9354246 68.592727,25.0028887 C68.592727,24.0703528 68.3706979,23.3237802 67.9266332,22.7631485 C67.4825685,22.2025168 66.8997423,21.9222051 66.1781371,21.9222051 C65.4565319,21.9222051 64.8709304,22.2052921 64.4213148,22.7714746 C63.9772501,23.343208 63.7552211,24.0897806 63.7552211,25.0112149 C63.7496703,25.9326492 63.9689239,26.6764464 64.4129886,27.242629 C64.8570534,27.8088115 65.4426549,28.0891231 66.1698109,28.0835723 Z M66.6194242,20.3901895 C67.7684417,20.3901895 68.6926375,20.8092693 69.3920395,21.6474414 C70.0914414,22.4800628 70.4411371,23.5957587 70.4411371,24.9945626 C70.4411371,26.3933664 70.0969921,27.514613 69.4086918,28.358336 C68.7203915,29.202059 67.8045217,29.6211388 66.6610551,29.615588 C66.0116104,29.6211388 65.4398857,29.485146 64.9458636,29.2076055 C64.4518416,28.9300651 64.0688416,28.5415143 63.7968519,28.0419415 L63.7635472,28.0419415 L63.7635472,32.521422 L61.9567679,32.521422 L61.9567679,20.4817774 L63.6969379,20.4817774 L63.6969379,21.9804883 L63.7385687,21.9804883 C63.9883551,21.4920171 64.3741306,21.1034663 64.8959066,20.8148242 C65.4176827,20.5261822 65.9921828,20.3846387 66.6194242,20.3901895 Z M78.1928032,27.6089805 C78.72013,27.9697831 79.3723403,28.1501817 80.1494536,28.1501817 C80.9265668,28.1501817 81.5593496,27.9753338 82.0478208,27.6256329 C82.536292,27.2703811 82.7805239,26.8429752 82.7805239,26.3434024 C82.7805239,25.8438296 82.605676,25.4441773 82.2559751,25.1444336 C81.9062741,24.84469 81.3428754,24.6032334 80.5657622,24.4200567 L79.008768,24.045379 C77.904157,23.7789401 77.0909757,23.3820632 76.5691997,22.8547364 C76.0474236,22.3274095 75.7837641,21.6446702 75.7782133,20.8064981 C75.7837641,19.7740476 76.1917425,18.9331126 77.0021606,18.283668 C77.8125787,17.6342233 78.8561152,17.3095059 80.1328012,17.3095059 C81.4094873,17.3150567 82.447473,17.6397741 83.2467895,18.283668 C84.046106,18.9275618 84.4596351,19.7684968 84.4873892,20.8064981 L82.6722837,20.8064981 C82.6112248,20.2125615 82.353116,19.7435252 81.8979497,19.399375 C81.4427833,19.0552249 80.8544064,18.8831524 80.1328012,18.8831524 C79.4111961,18.8831524 78.8228191,19.0496741 78.3676528,19.3827227 C77.9124864,19.7157712 77.6849067,20.1209742 77.6849067,20.5983438 C77.6849067,21.0757134 77.8542038,21.447612 78.1928032,21.7140508 C78.5314025,21.9804896 79.0892505,22.2136201 79.8663637,22.4134493 L81.1902251,22.73817 C82.4280555,23.0323628 83.318947,23.4403412 83.8629263,23.9621172 C84.4069055,24.4838933 84.6788911,25.1860601 84.6788911,26.0686387 C84.6788911,27.195453 84.2625867,28.0863444 83.4299653,28.7413399 C82.597344,29.3963354 81.4899742,29.7238282 80.1078227,29.7238282 C78.7256713,29.7238282 77.6183015,29.4018861 76.7856801,28.7579923 C75.9530588,28.1140984 75.5117761,27.2537359 75.4618188,26.176879 L77.3019028,26.176879 C77.3685125,26.7708155 77.6654763,27.2481779 78.1928032,27.6089805 Z M88.5089302,26.9595391 C88.5089302,27.7255508 88.8780535,28.1085508 89.6163111,28.1085508 C89.8327926,28.1085508 90.0381695,28.094674 90.2324478,28.06692 L90.2324478,29.4906954 C89.9882122,29.5517543 89.6496179,29.5822833 89.2166548,29.5822833 C88.3118729,29.5878341 87.6679887,29.4018848 87.2849829,29.0244298 C86.9019771,28.6469747 86.7104771,28.0197427 86.7104771,27.1427149 L86.7104771,21.9055528 L85.4615513,21.9055528 L85.4615513,20.4817774 L86.7104771,20.4817774 L86.7104771,18.4501914 L88.5089302,18.4501914 L88.5089302,20.4817774 L90.2407739,20.4817774 L90.2407739,21.9055528 L88.5089302,21.9055528 L88.5089302,26.9595391 Z M95.6361334,28.1335294 C96.402145,28.1335294 97.0016234,27.8587684 97.4345865,27.3092383 C97.8675496,26.7597083 98.0812525,25.9909327 98.0757017,25.0028887 C98.0812525,24.0203955 97.8675496,23.25162 97.4345865,22.6965391 C97.0016234,22.1414582 96.402145,21.8639219 95.6361334,21.8639219 C94.8701217,21.8639219 94.2706433,22.1414582 93.8376802,22.6965391 C93.4047171,23.25162 93.1882388,24.0203955 93.1882388,25.0028887 C93.1882388,25.9853819 93.4047171,26.7541574 93.8376802,27.3092383 C94.2706433,27.8643192 94.8701217,28.1390802 95.6361334,28.1335294 Z M98.7501217,28.3833145 C97.98411,29.2159359 96.9461243,29.6322403 95.6361334,29.6322403 C94.3261424,29.6322403 93.2853813,29.2159359 92.5138189,28.3833145 C91.7422564,27.556244 91.356481,26.432222 91.356481,25.0112149 C91.356481,23.5902078 91.7450318,22.4606351 92.5221451,21.6224629 C93.2992583,20.7842908 94.337244,20.365211 95.6361334,20.365211 C96.9405735,20.365211 97.9785592,20.7815154 98.7501217,21.6141368 C99.5216841,22.4467581 99.9074596,23.5763308 99.9074596,25.0028887 C99.9019087,26.4238958 99.5161333,27.5506932 98.7501217,28.3833145 Z M101.356213,29.5240001 L101.356213,20.4817774 L103.079731,20.4817774 L103.079731,22.0054668 L103.113036,22.0054668 C103.257357,21.5003432 103.523792,21.1034663 103.912348,20.8148242 C104.300905,20.5261822 104.761615,20.3846387 105.294493,20.3901895 C105.54983,20.3901895 105.760758,20.409617 105.927282,20.4484727 L105.927282,22.1386856 C105.744105,22.0665251 105.469344,22.0304453 105.102991,22.0304453 C104.509054,22.0304453 104.037243,22.21917 103.687542,22.596625 C103.337841,22.9740801 103.162993,23.4847468 103.162993,24.1286407 L103.162993,29.5240001 L101.356213,29.5240001 Z M110.931311,29.6322403 C109.626871,29.6266895 108.591661,29.2131604 107.825649,28.3916407 C107.059637,27.570121 106.676637,26.4516497 106.676637,25.0361934 C106.676637,23.6207371 107.056862,22.488389 107.817323,21.6391153 C108.577784,20.7898415 109.58524,20.365211 110.839723,20.365211 C112.094206,20.365211 113.085011,20.7648632 113.812167,21.5641797 C114.539323,22.3634962 114.902895,23.4514385 114.902895,24.8280391 L114.902895,25.4608282 L108.500069,25.4608282 L108.500069,25.5690684 C108.500069,26.3517325 108.724873,26.9817399 109.174489,27.4591094 C109.624104,27.936479 110.220807,28.1723849 110.964616,28.1668341 C111.491943,28.1668341 111.947102,28.0502688 112.330108,27.8171348 C112.713114,27.5840009 112.965672,27.2703848 113.08779,26.8762774 L114.811307,26.8762774 C114.683639,27.6866955 114.259008,28.3472319 113.537403,28.8579063 C112.815798,29.3685808 111.947109,29.6266895 110.931311,29.6322403 Z M112.446674,22.4800586 C112.041465,22.0526463 111.511371,21.8389434 110.856376,21.8389434 C110.20138,21.8389434 109.657409,22.0554217 109.224446,22.4883848 C108.791483,22.9213479 108.552802,23.4847466 108.508395,24.1785977 L113.096116,24.1785977 C113.073913,23.473645 112.857434,22.9074709 112.446674,22.4800586 Z" id="AppStore" fill="#FFFFFF" fill-rule="nonzero"></path>
                    <path d="M28.3176228,28.0502994 C27.2858266,29.552477 26.2185281,31.0454146 24.5334181,31.0767074 C22.8749968,31.1080002 22.3433337,30.0987458 20.450921,30.0987458 C18.5565222,30.0987458 17.9639097,31.0454146 16.3980794,31.1080002 C14.7712748,31.1686146 13.5342737,29.4855794 12.4939743,27.9901778 C10.3686751,24.9326001 8.74656277,19.3448641 10.9281316,15.5739338 C12.0084392,13.7012076 13.9442241,12.5163193 16.0419409,12.4850388 C17.6395493,12.4557665 19.1487624,13.5573593 20.1245745,13.5573593 C21.1018763,13.5573593 22.9337119,12.2347703 24.8595164,12.428761 C25.6656383,12.4619142 27.9280924,12.7521487 29.3810731,14.8688479 C29.2662498,14.9439876 26.6805524,16.4416561 26.7120823,19.5618193 C26.7437363,23.2889889 29.992678,24.5278881 30.0304146,24.5447665 C30.000995,24.6323617 29.5110407,26.3134257 28.3176228,28.0502994 Z M21.2423952,8.33439381 C22.1342932,7.29388356 23.6412719,6.51995348 24.8849637,6.46795076 C25.0438544,7.91327156 24.4598071,9.36058821 23.5972045,10.4035009 C22.7328641,11.4445409 21.3179924,12.2554925 19.9294369,12.1472121 C19.7407542,10.7331717 20.440618,9.25844309 21.2423952,8.33439381 Z" id="logo" fill="#FFFFFF" fill-rule="nonzero"></path>
                </g>
            </g>
        </g>
    </g>
</svg>

<svg xmlns="http://www.w3.org/2000/svg" viewBox="0 0 126 38"><g fill="none" fill-rule="evenodd"><rect width="125.244" height="37.632" fill="#1A2238" rx="5.88"/><path fill="#FFF" fill-rule="nonzero" d="M40.587 6.49h2.132c1.843 0 2.933 1.15 2.933 3.105 0 1.96-1.086 3.109-2.933 3.109h-2.132V6.49zm.775.697v4.82h1.305c1.408 0 2.192-.862 2.192-2.404 0-1.554-.78-2.416-2.192-2.416h-1.305zm7.773 5.56c-1.305 0-2.14-.926-2.14-2.364 0-1.443.835-2.365 2.14-2.365 1.305 0 2.14.922 2.14 2.365 0 1.438-.835 2.364-2.14 2.364zm0-.667c.866 0 1.378-.634 1.378-1.697 0-1.068-.512-1.697-1.378-1.697-.866 0-1.378.633-1.378 1.697 0 1.063.517 1.697 1.378 1.697zm9.508-4.019l-1.3 4.643h-.758l-1.06-3.609h-.017l-1.06 3.609h-.757l-1.3-4.643h.74l.943 3.795h.017l1.064-3.795h.723l1.064 3.795h.017l.944-3.795h.74zm1.343 4.643V8.061h.707v.754h.017c.293-.525.753-.797 1.473-.797 1.02 0 1.61.655 1.61 1.71v2.976h-.749V9.857c0-.758-.353-1.171-1.085-1.171-.763 0-1.223.525-1.223 1.322v2.696h-.75zm5.55 0V6.218h.75v6.486h-.75zm4.427.043c-1.305 0-2.14-.926-2.14-2.364 0-1.443.835-2.365 2.14-2.365 1.305 0 2.14.922 2.14 2.365 0 1.438-.835 2.364-2.14 2.364zm0-.667c.866 0 1.379-.634 1.379-1.697 0-1.068-.513-1.697-1.379-1.697-.865 0-1.378.633-1.378 1.697 0 1.063.517 1.697 1.378 1.697zm5.15.017c.758 0 1.314-.491 1.314-1.159v-.374l-1.215.077c-.697.043-1.059.297-1.059.745 0 .43.375.71.96.71zm-.159.65c-.943 0-1.568-.543-1.568-1.365 0-.797.612-1.266 1.74-1.335l1.301-.078v-.387c0-.577-.379-.896-1.064-.896-.538 0-.939.276-1.03.715h-.718c.021-.784.784-1.383 1.757-1.383 1.098 0 1.804.586 1.804 1.5v3.186h-.71v-.805h-.018c-.262.516-.844.848-1.494.848zm5.684 0c-1.167 0-1.99-.947-1.99-2.364 0-1.417.819-2.365 1.973-2.365.663 0 1.197.289 1.481.797h.018V6.218h.749v6.486h-.715v-.784h-.013c-.301.534-.831.827-1.503.827zm.134-4.061c-.814 0-1.357.672-1.357 1.697 0 1.029.543 1.697 1.357 1.697.805 0 1.352-.685 1.352-1.697 0-1.008-.547-1.697-1.352-1.697zm8.59 4.061c-1.305 0-2.14-.926-2.14-2.364 0-1.443.835-2.365 2.14-2.365 1.305 0 2.14.922 2.14 2.365 0 1.438-.835 2.364-2.14 2.364zm0-.667c.866 0 1.378-.634 1.378-1.697 0-1.068-.512-1.697-1.378-1.697-.866 0-1.378.633-1.378 1.697 0 1.063.517 1.697 1.378 1.697zm3.634.624V8.061h.706v.754h.018c.293-.525.753-.797 1.473-.797 1.02 0 1.61.655 1.61 1.71v2.976h-.75V9.857c0-.758-.352-1.171-1.084-1.171-.763 0-1.223.525-1.223 1.322v2.696h-.75zm8.569-5.69h.75v1.047h.904v.62h-.905v2.787c0 .426.181.62.577.62.09 0 .272-.013.323-.021v.633a2.71 2.71 0 01-.482.038c-.84 0-1.167-.348-1.167-1.24V8.682h-.646v-.62h.646V7.014zm3.234 5.69V6.218h.749v2.597h.017c.289-.525.762-.797 1.473-.797 1.016 0 1.637.69 1.637 1.723v2.963h-.75v-2.83c0-.74-.374-1.188-1.11-1.188-.785 0-1.267.534-1.267 1.348v2.67h-.75zm7.428-4.027c-.728 0-1.253.53-1.305 1.314h2.554c-.017-.788-.517-1.314-1.25-1.314zm1.232 2.7h.74c-.129.797-.934 1.37-1.925 1.37-1.305 0-2.127-.909-2.127-2.347s.827-2.382 2.093-2.382c1.24 0 2.015.875 2.015 2.279v.292h-3.333v.044c0 .882.543 1.455 1.37 1.455.58 0 1.033-.275 1.167-.71z"/><text fill="#FFF" font-family="SFUIDisplay-Medium, SF UI Display" font-size="17.052" font-weight="400"><tspan x="39.984" y="29.524">App Store</tspan></text><path fill="#FFF" fill-rule="nonzero" d="M28.318 28.05c-1.032 1.502-2.1 2.995-3.785 3.027-1.658.031-2.19-.978-4.082-.978-1.894 0-2.487.946-4.053 1.009-1.627.06-2.864-1.622-3.904-3.118-2.125-3.057-3.747-8.645-1.566-12.416 1.08-1.873 3.016-3.058 5.114-3.089 1.598-.03 3.107 1.072 4.083 1.072.977 0 2.809-1.322 4.735-1.128.806.033 3.068.323 4.521 2.44-.115.075-2.7 1.573-2.669 4.693.032 3.727 3.28 4.966 3.318 4.983-.029.087-.519 1.768-1.712 3.505zM21.242 8.334c.892-1.04 2.4-1.814 3.643-1.866.159 1.445-.425 2.893-1.288 3.936-.864 1.04-2.279 1.851-3.668 1.743-.188-1.414.512-2.889 1.313-3.813z"/></g></svg>
